img/icon-payment/logo-aura.svg

<svg width="58" height="39" viewBox="0 0 58 39" fill="none" xmlns="http://www.w3.org/2000/svg">
<path fill-rule="evenodd" clip-rule="evenodd" d="M0.0214844 0.550537H57.2565L57.3225 18.3829C50.4182 15.7443 28.4301 9.45572 0.0434738 17.3055V0.550537H0.0214844Z" fill="#2C328C"/>
<path fill-rule="evenodd" clip-rule="evenodd" d="M0.0214844 38.37H57.2565V24.0997C46.9441 20.6476 28.584 15.4804 0.0214844 22.8024V38.37Z" fill="#FFF200"/>
<path fill-rule="evenodd" clip-rule="evenodd" d="M57.235 24.1219C46.9226 20.6698 28.5625 15.5025 0 22.8246V17.3056C28.4086 9.47782 50.3747 15.7664 57.279 18.383L57.235 24.1219Z" fill="#ED1C24"/>
<path fill-rule="evenodd" clip-rule="evenodd" d="M18.25 13.9413C19.6572 10.0274 22.9115 6.64126 28.5404 6.68524C34.1694 6.72921 37.9293 9.93948 38.9408 14.1392C31.6627 13.3916 26.8473 13.2597 18.25 13.9413Z" fill="#FFF200"/>
<path d="M12.7969 31.1581L16.6228 25.4412H18.052L22.1418 31.1581H20.6466L19.4813 29.421H15.3035L14.2041 31.1581H12.7969ZM15.6773 28.8053H19.0635L18.03 27.2222C17.7222 26.7385 17.4803 26.3427 17.3264 26.0348C17.1945 26.4086 17.0186 26.7604 16.7767 27.1342L15.6773 28.8053ZM28.8482 31.1581V30.5424C28.2765 31.0041 27.5289 31.246 26.5614 31.246C26.1437 31.246 25.7259 31.202 25.3741 31.1141C25.0003 31.0261 24.7364 30.8942 24.5605 30.7623C24.3846 30.6303 24.2527 30.4544 24.1867 30.2346C24.1427 30.1026 24.1207 29.8828 24.1207 29.5749V27.0023H25.3521V29.2891C25.3521 29.6629 25.3741 29.9047 25.418 30.0367C25.506 30.2126 25.6599 30.3665 25.9018 30.4764C26.1437 30.5864 26.4515 30.6303 26.8253 30.6303C27.1991 30.6303 27.5289 30.5864 27.8587 30.4764C28.1885 30.3665 28.4084 30.2126 28.5404 30.0367C28.6723 29.8608 28.7382 29.5749 28.7382 29.2231V27.0023H29.9696V31.1361H28.8482V31.1581ZM32.916 31.1581V27.0243H34.0154V27.64C34.3012 27.3541 34.5651 27.1562 34.807 27.0683C35.0488 26.9803 35.3127 26.9363 35.5985 26.9363C36.0163 26.9363 36.4341 27.0023 36.8519 27.1562L36.4341 27.8159C36.1262 27.7059 35.8404 27.662 35.5326 27.662C35.2687 27.662 35.0268 27.7059 34.807 27.7939C34.5871 27.8818 34.4332 28.0138 34.3452 28.1677C34.2133 28.4096 34.1473 28.6954 34.1473 28.9812V31.1361H32.916V31.1581ZM43.3383 30.6523C42.8766 30.8722 42.4368 31.0261 42.0191 31.1141C41.6013 31.202 41.1395 31.246 40.6778 31.246C39.8862 31.246 39.2705 31.1361 38.8528 30.9162C38.435 30.6963 38.2151 30.4105 38.2151 30.0587C38.2151 29.8608 38.3031 29.6629 38.457 29.509C38.6109 29.3331 38.8308 29.2011 39.0946 29.1132C39.3585 29.0032 39.6443 28.9373 39.9742 28.8933C40.216 28.8493 40.5678 28.8273 41.0516 28.7833C42.041 28.7174 42.7666 28.6294 43.2284 28.5415C43.2284 28.4535 43.2284 28.3876 43.2284 28.3656C43.2284 28.0797 43.1185 27.8818 42.8766 27.7719C42.5688 27.618 42.107 27.53 41.4913 27.53C40.9197 27.53 40.4799 27.596 40.216 27.7059C39.9522 27.8159 39.7323 28.0358 39.6004 28.3216L38.413 28.2336C38.5229 27.9478 38.6989 27.7059 38.9407 27.53C39.1826 27.3541 39.5564 27.2002 40.0181 27.1123C40.4799 27.0243 41.0296 26.9583 41.6672 26.9583C42.2829 26.9583 42.7886 27.0023 43.1624 27.0903C43.5582 27.1782 43.8221 27.2882 44.02 27.3981C44.1959 27.53 44.3278 27.6839 44.3938 27.8818C44.4377 27.9918 44.4597 28.2117 44.4597 28.5195V29.465C44.4597 30.1246 44.4817 30.5204 44.5477 30.6963C44.5917 30.8722 44.7016 31.0261 44.8555 31.202H43.5802C43.4703 31.0041 43.3823 30.8282 43.3383 30.6523ZM43.2504 29.0692C42.8106 29.1791 42.129 29.2671 41.2495 29.3331C40.7437 29.377 40.3919 29.421 40.1721 29.465C39.9522 29.509 39.7983 29.5969 39.6883 29.6849C39.5784 29.7948 39.5124 29.9047 39.5124 30.0147C39.5124 30.2126 39.6443 30.3665 39.8862 30.4764C40.1281 30.6084 40.5019 30.6523 40.9636 30.6523C41.4254 30.6523 41.8651 30.5864 42.2169 30.4764C42.5907 30.3665 42.8546 30.1906 43.0305 29.9927C43.1624 29.8388 43.2284 29.5969 43.2284 29.2891V29.0692H43.2504Z" fill="#2C328C" stroke="#2C328C" stroke-width="0.216" stroke-miterlimit="22.9256"/>
</svg>

<svg width="58" height="39" fill="none" xmlns="http://www.w3.org/2000/svg"><path fill-rule="evenodd" clip-rule="evenodd" d="M.021.55h57.236l.066 17.833C50.417 15.744 28.43 9.456.042 17.305V.551H.021z" fill="#2C328C"/><path fill-rule="evenodd" clip-rule="evenodd" d="M.021 38.37h57.236V24.1C46.944 20.648 28.584 15.48.02 22.802V38.37z" fill="#FFF200"/><path fill-rule="evenodd" clip-rule="evenodd" d="M57.235 24.122C46.923 20.67 28.563 15.502 0 22.825v-5.52c28.409-7.827 50.375-1.539 57.279 1.078l-.044 5.739z" fill="#ED1C24"/><path fill-rule="evenodd" clip-rule="evenodd" d="M18.25 13.941c1.407-3.914 4.662-7.3 10.29-7.256 5.63.044 9.39 3.254 10.4 7.454-7.277-.747-12.093-.88-20.69-.198z" fill="#FFF200"/><path d="M12.797 31.158l3.826-5.717h1.429l4.09 5.717h-1.495l-1.166-1.737h-4.178l-1.099 1.737h-1.407zm2.88-2.353h3.387l-1.034-1.583a14.62 14.62 0 01-.704-1.187 5.133 5.133 0 01-.55 1.1l-1.099 1.67zm13.171 2.353v-.616c-.572.462-1.32.704-2.287.704-.417 0-.835-.044-1.187-.132-.374-.088-.638-.22-.813-.352a1.019 1.019 0 01-.374-.527c-.044-.132-.066-.352-.066-.66v-2.573h1.231v2.287c0 .374.022.616.066.748.088.176.242.33.484.44.242.11.55.153.923.153.374 0 .704-.044 1.034-.154.33-.11.55-.263.681-.44.132-.175.198-.461.198-.813v-2.22h1.232v4.133h-1.122v.022zm4.068 0v-4.134h1.1v.616c.285-.286.55-.484.791-.572.242-.088.506-.132.791-.132.418 0 .836.066 1.254.22l-.418.66a2.591 2.591 0 00-.901-.154c-.264 0-.506.044-.726.132a.896.896 0 00-.462.374 1.712 1.712 0 00-.198.813v2.155h-1.231v.022zm10.422-.506a5.93 5.93 0 01-1.319.462c-.418.088-.88.132-1.341.132-.792 0-1.407-.11-1.825-.33-.418-.22-.638-.506-.638-.857 0-.198.088-.396.242-.55.154-.176.374-.308.638-.396.264-.11.55-.176.88-.22.241-.044.593-.066 1.077-.11.989-.066 1.715-.154 2.176-.242v-.175c0-.286-.11-.484-.351-.594-.308-.154-.77-.242-1.386-.242-.571 0-1.011.066-1.275.176-.264.11-.484.33-.616.616l-1.187-.088c.11-.286.286-.528.528-.704.242-.176.615-.33 1.077-.418a8.765 8.765 0 011.65-.154c.615 0 1.12.044 1.494.132.396.088.66.198.858.308.176.132.308.286.374.484.044.11.066.33.066.637v.946c0 .66.022 1.055.088 1.231.044.176.154.33.307.506H43.58a2.338 2.338 0 01-.242-.55zm-.088-1.583c-.44.11-1.121.198-2 .264-.506.044-.858.088-1.078.132-.22.044-.374.132-.484.22-.11.11-.176.22-.176.33 0 .198.132.351.374.461.242.132.616.176 1.078.176.461 0 .901-.066 1.253-.176.374-.11.638-.285.814-.483.131-.154.197-.396.197-.704v-.22h.022z" fill="#2C328C" stroke="#2C328C" stroke-width=".216" stroke-miterlimit="22.926"/></svg>
